X:1060
T:Polska från Ön
R:Polska
Z:Anton Teljebäck 080125
O:Västerbotten, Umeå
S:efter [[Personer/P-G Eriksson]], Umeå
M:3/4
L:1/16
K:D
A2 |d2A2 F2A2 E2A2 | (D2F2) A2c2 d4 | A4 a2ba f2gf | e2ce d2A2 F2A2 |
    d2A2 F2A2 E2A2 | (D2F2) A2c2 d4 | A4 a2ba f2gf | e2c2 d8 :|
|:(A2d2) f2a2 a4 | (ab)af g2b2 a4 | a4 g2ag f2gf | e3d c2e2 a4 |
  (A2d2) f2a2 a4 | (ab)af g2b2 a4 | a4 g2ag f2gf |  e2c2 d8 :|
(:musicend:)

(:music:)
